X:1
T:Festival Love
M:3/4
L:1/4
K:C
 C/2D/2| E E E| F/2 E3/2 D| E G2-| G z G| A A3/2 A/2| A G E|G/2-D/2 E2-|\
 E z G| A/2 A3/2 A| A G/2 E3/2| G/2 G3/2 G| E2 E| D/2 D3/2 E| F E D|\
 C3-| C z C/2D/2| E E E| F E D| E G2-| G z G/2G/2| A/2 A3/2 A| A/2 G3/2 E|\
 G3-| G3/2 G/2 G| A3/2 A/2 A| A/2- G3/2 G/2E/2| G G G| G/2- F3/2 E|\
 D D E| F/2 E3/2 D| C3-| C z G/2G/2| A3/2 A/2 A| G2 G/2F/2| E G2-|\
 G z G| A2 A/2A/2| G2 F/2E/2|E/2-D/2 D2-| D z G| A A A| A G E| G G G|\
 G F E| D D F| F3/2 E/2 D| C3-| C z||
